icons/Moon.svg

<svg width="24" height="24" viewBox="0 0 24 24" fill="none" xmlns="http://www.w3.org/2000/svg">
<path fill-rule="evenodd" clip-rule="evenodd" d="M11.3352,3.7764c-4.24549,0.33853 -7.5852,3.89105 -7.5852,8.2236c0,4.5563 3.69365,8.25 8.25,8.25c2.7885,0 5.2545,-1.3829 6.7488,-3.5035c-4.7163,-0.133 -8.4988,-3.998 -8.4988,-8.74649c0,-1.53058 0.3936,-2.97094 1.0852,-4.22361zM2.25,12c0,-5.38478 4.36522,-9.75 9.75,-9.75c0.4781,0 0.8432,0.28768 1.0109,0.64311c0.1634,0.34603 0.1555,0.77977 -0.0807,1.14035c-0.7462,1.13937 -1.1802,2.50114 -1.1802,3.96655c0,4.00409 3.2459,7.24999 7.25,7.24999c0.4988,0 0.9341,0.2584 1.18,0.6336c0.2545,0.3882 0.3185,0.9324 0.0085,1.4109c-1.7359,2.6797 -4.7546,4.4555 -8.1885,4.4555c-5.38478,0 -9.75,-4.3652 -9.75,-9.75z" fill="#002B51"/>
</svg>

<svg width="24" height="24" viewBox="0 0 24 24" fill="none" xmlns="http://www.w3.org/2000/svg">
<path fill-rule="evenodd" clip-rule="evenodd" d="M11.3352 3.7764C7.08971 4.11493 3.75 7.66745 3.75 12C3.75 16.5563 7.44365 20.25 12 20.25C14.7885 20.25 17.2545 18.8671 18.7488 16.7465C14.0325 16.6135 10.25 12.7485 10.25 8.00001C10.25 6.46943 10.6436 5.02907 11.3352 3.7764ZM2.25 12C2.25 6.61522 6.61522 2.25 12 2.25C12.4781 2.25 12.8432 2.53768 13.0109 2.89311C13.1743 3.23914 13.1664 3.67288 12.9302 4.03346C12.184 5.17283 11.75 6.5346 11.75 8.00001C11.75 12.0041 14.9959 15.25 19 15.25C19.4988 15.25 19.9341 15.5084 20.18 15.8836C20.4345 16.2718 20.4985 16.816 20.1885 17.2945C18.4526 19.9742 15.4339 21.75 12 21.75C6.61522 21.75 2.25 17.3848 2.25 12Z" fill="#002B51"/>
</svg>
